X:6
T:Gigue des Paroissiens
C:Joseph Allard
M:6/8
L:1/8
Z:abc by Bruce Osborne - bosborne@kos.net
K:D
A|AFA dfa|agf efg|fdf fed|cee ecA|!
AFA dfa|agf efg|afd gec|edd d2:|!
|:D|DFA dcB|ABA FAF|DFA DFA|A,CE A,CE|!
DFA dcB|ABA FAd|fef gec|edd d2:|!
